X: 1304
T: Kürdîlihicazkâr Seyir
C: Erol Bingöl
O: Turkey
F: http://compmusic.upf.edu/node/140
N: kurdilihicazkar--seyir--senginsemai--1--erol_bingol
N: makam= kurdilihicazkar
N: form= seyir
N: usul= senginsemai = 6/4
M: 6/4
L: 1/16
K: C _B _e _A 
Q: 1/4=60
%%MIDI tuningsystem comma53
f4 g4 g2b2 a2g2 g8  | f4 g2f2 e4 d4 c8  | \
w:   |   | 
d4 e4 f4 g4 g2b2 a2g2  | 
w:   | 
g8 c2d2 e2f2 g8  | f4 g4 g4 c'4 b4 a4  | \
w:   |   | 
g4 f4 e4 d2c2 B8  | B2c2 d2e2 d2c2 c2B2 B2A2 A2G2  | 
w:   |   | 
G12 B2AG G8  | |


